resources/svg/router-o.svg

<svg xmlns="http://www.w3.org/2000/svg" viewBox="0 0 15 15" fill="none"><path d="M1.5 9.5V9H1V9.5H1.5ZM13.5 9.5H14V9H13.5V9.5ZM13.5 14.5V15H14V14.5H13.5ZM1.5 14.5H1V15H1.5V14.5ZM3.21907 6.16133C4.37371 4.76169 5.91677 4 7.50004 4V3C5.58263 3 3.76839 3.92402 2.44768 5.52496L3.21907 6.16133ZM7.50004 4C9.08331 4 10.6264 4.76169 11.781 6.16133L12.5524 5.52496C11.2317 3.92402 9.41745 3 7.50004 3V4ZM0.885695 4.31818C2.65795 2.16988 5.03983 1 7.5 1V0C4.70916 0 2.05508 1.32925 0.114305 3.68182L0.885695 4.31818ZM7.5 1C9.96017 1 12.342 2.16988 14.1143 4.31818L14.8857 3.68182C12.9449 1.32925 10.2908 0 7.5 0V1ZM7 6V9H8V6H7ZM1.5 10H13.5V9H1.5V10ZM13 9.5V14.5H14V9.5H13ZM13.5 14H1.5V15H13.5V14ZM2 14.5V9.5H1V14.5H2Z" fill="black"/></svg>

<svg xmlns="http://www.w3.org/2000/svg" viewBox="0 0 15 15" fill="none"><path d="M1.5 9.5V9H1v.5h.5zm12 0h.5V9h-.5v.5zm0 5v.5h.5v-.5h-.5zm-12 0H1v.5h.5v-.5zm1.72-8.339C4.373 4.761 5.916 4 7.5 4V3c-1.917 0-3.732.924-5.052 2.525l.771.636zM7.5 4c1.583 0 3.126.762 4.281 2.161l.771-.636C11.232 3.924 9.417 3 7.5 3v1zm-6.614.318C2.658 2.17 5.04 1 7.5 1V0C4.71 0 2.055 1.33.114 3.682l.772.636zM7.5 1c2.46 0 4.842 1.17 6.614 3.318l.772-.636C12.945 1.329 10.29 0 7.5 0v1zM7 6v3h1V6H7zm-5.5 4h12V9h-12v1zM13 9.5v5h1v-5h-1zm.5 4.5h-12v1h12v-1zM2 14.5v-5H1v5h1z" fill="currentColor"/></svg>
